X: 33
T:Pen-y-Cei
T:The End of the Quay
M:2/4
L:1/8
Q:220
S:Band y Brodyr
R:Polka
A:Wales
Z:brian_martin12345@yahoo.com
K:G
B/c/|dd d/e/f/g/|cc c/d/e/f/|BB ee/d/|c/B/A/G/ AB/c/|
dd d/e/f/g/|cc c/d/e/f/|BG e/d/c/B/|AF G:||
B/c/|dd d/e/f/g/|aa/g/ f/e/d/c/|BB ee/d/|c/B/A/G/ AB/c/|
dd d/e/f/g/|aa/g/ f/e/d/c/|BG e/d/c/B/|AF G:||
